X: 418
T: Potrcano
B: incoming
M:7/8
L:1/8
Q: 1/4=120
K:G
V:1 treble
|:"D" D2 e dc BA                   |\
  "G" B2 A G2 GF                   |"A" G2 F E2 ED        |\
  "D" F2 G A2 z2                   | D2 e dc BA           |
  "G"B2 A G2 GF                    |G2 F EF FD            |\
  "Em" E z z z2 "Am"A2             |"Em" E z z z2 "Am" A2 |\
  "Em" E2 A E2 z2 :: "D"D2 D ED EF |
  "G" G2 A Bc BA                   |"A" G2 F E2 ED        |\
  "D"F2 G A2 A2                    | D2 D ED EF           |\
  "G" G2 A Bc BA                   |"Em" G2 F EF "Bm"FD   |
  "Em" E z z z2 "Am"A2             |"Em" E z z z2 "Am"A2  |\
  "Em" E2 A E2 z2 ::"Em"B2 A AG BA |\
  G2 F EF "Bm" GA                  |"Em" G2 F "Bm" EF FD  |
  "Em" E2 D EF GA                  | B2 A AG BA           |\
  G2 F EF GA                       | G2 F EF "Bm" ED      |\
  "Em" E z z z2 "Am" A2            |"Em" E z z z2 "Am"A2  |
  "Em" E2 A E2 z2                  :|
V:2 treble
|:\
  D2 c BA GF                       | G2 F E2 ED           |\
  D2 D ^C2 CD                      | D2 E F2 z2           |\
  D2 c BA GF                       |
  G2 F E2 ED                       | E2 D B,D DB,         |\
  E z z z2 E2                      | E z z z2 E2          |\
  E2 E E2 z2 :: D2 D ED ED         |
  D2 F GA GF                       | E2 D E2 ED           |\
  D2 E F2 F2                       |D2 D ED ED            |\
  D2 F GA GF                       | E2 D CD DB,          |
  E z z z2 E2                      | E z z z2 E2          |\
  E2 E E2 z2 :: G2 F FE GF         |\
  E2 D CD EF                       | E2 D CD DB,          |
  E2 D EF GA                       | G2 F FE GF           |\
  E2 D B,D EF                      | G2 D CD CB,          |\
  E z z z2 E2                      |E z z z2 E2           |
 E2 E E2 z2 :|
W: Transcribed by Peter Bagger Nielsen 2012
W: http://www.mandagsorkestret.dk/menu_noder/Noder.htm
W: extracted from pdf file using Audiveris with some editing
% abcbook-tune_id 63cb0843df0862f780bc1fc5
% abcbook-tune_composer_id 
% abcbook-boost 0
% abcbook-difficulty 0
% abcbook-tags balkan dances
% abcbook-tablature 
% abcbook-transpose 
% abcbook-tuning 
% abcbook-lastupdated 1674250307968
% abcbook-soundfonts 
% abcbook-repeats 1
%%score 1 2

